X:1
T:Balada Para Un Loco
T:Balada Para Un Loco
T:Astor Piazzolla
T:Ballada Para Un Loco - Astor Piazzolla
T:2
C:Astor Piazzolla
Z:Public Domain
L:1/8
Q:1/4=120
M:3/4
K:Dmin
V:1 treble nm="MusicXML Part"
%%MIDI program 0
%%MIDI control 7 102
%%MIDI control 10 64
V:1
"Dm""^INTRO" d6 | c6 | B6 | A6 | B4 A2 | B3 A GF |"Eb" _E6- | E6 | _E6 | B6 |"Dm" D6 | A6 | %12
w: ||||||||||||
"E7" ^G6 | E6 |"A7" A6- | A6 :|"E7" ^G6 |"A7" A6"A" |"Dm" D6- | D2 z2 z2 |[M:4/4] z2 z A AA AA || %21
w: |||||||||
[K:D]"D""^COUPLET" A3 A A3 A |"A/C#" A3 A A^G AB |"C" =c c2 c"B7" BF BA |"Em" G2 z G GG GG | %25
w: ||||
 G G2 G AG AG |"D" F3 F"Bm" GF GF |"E" E3 E"A7" FE FE |"D" D2 z A AA AA |"D" A3 A A3 A | %30
w: |||||
"A/C#" A3 A A^G AB |"C" =c c2 c"B7" BF BA |"Em" G2 z G GG GG | G G2 G"A7" AG AG | %34
w: ||||
"D" F3 F"Bm" GF GF |"E" E3 E"A7" FE FE |"D" D8 ||[K:Dmin]"Dm""^REFRAIN" d2 c2 c2 B2 | %38
w: ||||
 B2 A2 z A BA | BA BA BA GF |"Eb" _E4 z E EB | B_E EB BE EB |"Dm" AD DA AD DA |"E" ^GD DG GD DG | %44
w: ||||||
"A" A8"F" |"Dm" d2 c2 c2 B2 | B2 A2 z A BA | BA BA BA GF |"Eb" _E4 z E EB | B_E EB BE EB | %50
w: ||||||
"Dm" AD DA AD D2 A2 |"E" ^GD DG"A" =GF FE ||[M:3/4]"Dm""^INTRO" d6 | c6 | B6 | A6 | B4 A2 | %57
w: |||||||
 B3 A GF |"Eb" _E6- | E6 | _E6 | B6 |"Dm" D6 | A6 |"E7" ^G6 | E6 |"A7" A6- | A6 :|"E" ^G6 | %69
w: ||||||||||||
"A7" A6 |"Dm" D6 | D2 z2 z2 |[M:4/4] z3 A AAAA ||[K:D]"D""^COUPLET" A3 A A3 A |"A" A3 A A^G AB | %75
w: ||||||
"Am" =c c2 c"B7" B2 F2 BA |"Em" G2 z G GG GG | G G2 G"A7" AG AG |"D" F3 F"Bm" GF GF | %79
w: ||||
"E" E3 E"A7" FE FE |"D" D2 z c"C7" cc cc |[K:F]"F" c3 c c3 c |"C" c3 c c=B cd | %83
w: ||||
"Cm" _e e2 e"D7" dA dc |"Gm" B2 z B BB BB |"Bbm" B B2 B cB cB |"C" A3 A"Dm" BA BA | %87
w: ||||
"G" G3 G"C7" AG AG ||[K:Dmin][M:3/4]"Dm""^OUTRO" d6 | c6 | B6 | A6 | B4 A2 | B3 A GF |"Eb" _E6- | %95
w: ||||||||
 E6 | _E6 | B6 |"Dm" D6 | A6 |"E7" ^G6 |"A7" A6 ||[M:6/4]"Dsus4" d2 d2 d3 d d2 d2 |"D" d8 |] %104
w: |||||||Lo- co ella y lo- co|yo!|

